X:1
T: The New Stove Jig (©Frank Ferrel)
M: 6/8
L: 1/8
R: jig
K: D
A|"D"f2A "A"e2A|"D"ded dAF| "D/F#"DFA "F°/F"ded|"Em"BGG G2f|
"A"g2A "D"f2A |efe ecB|1 ABA BAG|"D"F3 z2 :|[2 Aba gec | "D"d3 d2A||
|:"D"F2A AFD| A,DF A2F|DFA ded| "G"B3 z2A|
"A"g3 e3|cdc c2B|ABA BAG|"D"F3 F2A|
"D"f2A "A"e2A|"D"ded dAF |DFA ded|"G"B3 z2A|
"G"Bgg g2B|"D"Aff f2a|"A"gec ABc | "D"d3 d2|]


